ICONS/component-icons/svg/daterangepicker.svg

<?xml version="1.0" encoding="UTF-8"?><svg id="widgets" xmlns="http://www.w3.org/2000/svg" width="24" height="24" viewBox="0 0 24 24"><path id="daterangepicker" d="M13,5v3h-3v-3h3Zm4,0h-3v3h3v-3ZM6,9v3h3v-3h-3Zm0,11h3v-3h-3v3Zm7,0v-3h-3v3h3Zm6-.8l-2.8,2.8H4V4H2V24h15l4-4h0V4h-2v15.2ZM0,0V2H22l2-2H0ZM10,12h7v-1h-6v-1h6v-1h-7v3Zm-4,3v1h7v-3H6v1h6v1H6Zm11,1v-3h-3v3h3Z"/></svg>

<?xml version="1.0" encoding="utf-8"?>
<!-- Generator: Adobe Illustrator 24.2.3, SVG Export Plug-In . SVG Version: 6.00 Build 0)  -->
<svg version="1.1" id="Layer_1" xmlns="http://www.w3.org/2000/svg" xmlns:xlink="http://www.w3.org/1999/xlink" x="0px" y="0px"
	 width="24px" height="24px" viewBox="0 0 24 24" enable-background="new 0 0 24 24" xml:space="preserve">
<path d="M10,5v3h3V5H10z M6,9v3h3V9H6z M10,12h7v-1h-6v-1h6V9h-7V12z M19,19.2L16.2,22H4V4H2v20h15l4-4V4h-2V19.2z M6,15v1h7v-3H6v1
	h6v1H6z M17,5h-3v3h3V5z M6,20h3v-3H6V20z M0,0v2h22l2-2H0z M13,20v-3h-3v3H13z M17,16v-3h-3v3H17z"/>
</svg>
